X: 96
T: Brown Joak
M:6/4
L:1/8
S: 8: MCJLSH3 http://www.cpartington.plus.com/links/Walsh.abc
Z: Pete Stewart 2004
B: Walsh "Third Book of the most Celebrated jiggs, Lancashire hornpipes, ..."
K:Gmin
GA | B3A G2d3g^f2 | g3ab2f2d2B2 | f6A4G2 | ^F2d2c2=B2g2f2 | b3a g2A2B2^F2 | G6G,4 ||
gf | g3a b2^f2d2f2 | g3a b2c'3b a2 | ^f6d4f2 | g3ab2^f2d2f2 | g2d2B2c2D2^F2 | G6G,4 ||

%%sep 1 1 500
%%sep 1 1 500
